<?xml version="1.0" encoding="UTF-8"?>
<map version="1.10" tiledversion="1.12.1" orientation="orthogonal" renderorder="right-down" width="30" height="30" tilewidth="32" tileheight="32" infinite="0" nextlayerid="2" nextobjectid="1">
 <tileset firstgid="1" source="New Piskel.tsx"/>
 <tileset firstgid="11" source="New Piskel (1).tsx"/>
 <layer id="1" name="Tile Layer 1" width="30" height="30">
  <data encoding="csv">
16,14,15,16,11,11,16,17,11,18,21,7,1,7,3,2,5,2,3,25,18,17,12,11,12,11,11,16,15,15,
13,15,13,15,11,12,11,17,17,17,21,5,8,3,1,7,7,3,1,25,18,18,12,16,12,12,11,14,14,15,
15,16,16,14,11,16,11,17,17,18,21,7,5,5,6,4,2,4,5,24,18,17,11,16,11,11,16,14,16,13,
14,13,14,15,16,12,16,11,16,18,22,1,7,8,2,7,6,1,3,25,18,18,18,16,12,11,16,15,16,14,
13,15,14,16,12,16,16,11,17,18,19,7,6,1,4,1,4,1,7,24,17,17,11,11,11,16,14,13,13,13,
15,13,14,15,16,16,16,11,17,18,22,2,2,8,7,2,1,3,8,23,17,18,16,12,11,16,15,16,15,15,
15,14,13,16,12,16,11,11,17,17,20,5,3,2,2,6,4,7,5,24,17,17,16,11,11,12,13,13,13,15,
16,16,11,11,16,16,11,17,16,18,20,1,8,8,5,8,3,5,7,23,17,16,18,16,16,12,13,11,13,16,
13,13,13,16,12,16,11,11,17,17,20,3,7,1,8,1,4,5,6,26,18,18,12,16,12,11,11,16,14,14,
14,14,14,14,11,12,11,17,11,17,21,7,7,3,3,6,2,4,7,25,18,18,12,16,11,11,11,11,14,14,
14,13,16,11,12,12,16,11,11,17,22,8,7,4,4,7,1,8,7,23,18,17,12,16,12,12,15,14,13,13,
16,15,13,13,16,16,11,11,11,17,21,6,1,5,1,1,5,2,3,26,17,18,11,11,11,12,14,14,13,15,
15,16,11,14,11,12,16,11,11,17,21,1,7,7,5,5,6,1,2,24,17,18,18,11,16,11,16,15,13,13,
16,13,14,14,16,16,11,11,16,17,21,2,8,5,7,8,5,2,6,23,18,18,18,16,16,11,16,14,16,15,
13,16,13,11,11,16,12,11,11,17,21,2,5,3,3,3,5,6,7,23,17,17,12,12,11,16,13,14,13,14,
13,13,16,16,16,11,16,11,11,17,22,3,1,6,2,8,7,2,8,25,18,17,11,12,16,16,13,16,13,16,
14,15,13,13,12,11,12,17,17,18,20,3,4,3,1,1,6,5,2,26,17,17,12,16,11,11,15,15,13,13,
15,13,13,15,16,12,12,17,17,17,22,6,4,3,5,5,6,6,1,25,18,18,12,16,12,12,15,16,13,13,
14,14,16,14,11,16,11,11,17,18,22,5,2,4,3,4,1,5,1,25,18,17,12,12,12,11,14,14,16,16,
16,13,11,13,11,12,16,11,17,18,20,7,8,2,3,4,5,5,1,24,17,18,12,12,16,16,16,16,14,14,
13,16,11,11,12,12,16,11,11,17,19,5,8,7,8,1,2,5,6,26,18,18,16,12,11,12,14,15,13,15,
15,16,15,11,16,16,12,17,11,18,19,2,3,8,2,2,3,2,5,25,17,16,12,12,16,12,11,13,14,15,
16,14,16,14,16,12,16,11,16,17,22,4,3,6,5,2,5,5,5,25,17,17,11,12,12,12,16,15,15,13,
15,15,14,11,11,12,16,11,17,17,22,1,5,3,6,6,6,5,8,23,17,18,18,16,16,12,11,11,14,15,
15,15,15,16,16,11,12,11,11,17,22,8,4,6,4,6,2,4,4,25,17,17,11,16,16,16,16,11,15,16,
15,15,15,13,12,16,11,11,11,18,19,6,2,4,6,8,5,3,3,25,18,17,18,12,11,12,14,13,14,13,
15,16,11,14,12,11,11,11,11,17,21,6,5,6,1,8,5,2,6,24,18,18,16,12,11,12,15,11,13,13,
15,15,13,14,12,16,12,17,17,18,21,4,2,3,2,3,2,4,7,23,16,17,11,16,16,11,15,15,13,15,
16,15,16,15,12,12,16,11,11,17,20,8,5,8,1,5,1,2,3,26,17,18,12,16,16,11,14,14,13,15,
15,14,15,16,11,12,11,11,17,18,19,3,3,6,4,1,1,7,8,24,17,18,11,16,12,11,13,15,14,16
</data>
 </layer>
</map>
